X:1
T:The Sweet Kumadee
M:6/8
L:1/4
K:C
 C/2| C3/2 C/2- C| E3/2 C3/2| D D/2 E D/2| C3/2 G G/2| G3/2 G G/2|\
 c3/2 G G/2| A3/2 G E/2| G3/2 G G/2| c3/2 G G/2| A- G/2 G E/2| F- E/2 D- C/2|\
 A,3/2 G, A,/2| C3/2 C E/2| G3/2 E3/2| D3/2 C3/2-| C3/2 D E/2| F- A/2 G E/2|\
 D3/2 G,3/2| C3-| C z z/2||

